X:1
T:See, see, mine own sweet jewel - Morley
T:#
%%score { 1 | 2 } 3
L:1/8
Q:1/4=120
M:4/4
K:F
V:1 treble nm="Soprano I" snm="S"
V:2 treble 
V:3 treble-8 nm="Tenor" snm="T"
V:1
 A8 |[M:4/4]"^See, see, mine own sweet jewel" A4 c2 B4 | A2 G4 A4 | %3
w: See,|see, mine own|sweet jew- el,|
[M:4/4] z2 c2 c2"^Thomas Morley\n(1557-1603)" c2 | d4 c4 | z2 A2 B2 G2 | x8 |[M:4/4] A4 G4 | %8
w: mine own sweet|jew- el,|mine own sweet||jew- el,|
 z2 G2 B4 | F4 z2 A2 | c4 G4 | z2 d2 |[M:4/4] c4 B2 z2 |[M:3/4] A4 F2 |[M:3/4] G4 F4 | c2 c4 x2 | %16
w: What I|have, what|I have,|what|I have|for my|dar- ling,|A ro-|
 A2 c2 B2 x2 | A2 G2 F2 x2 | _E2 (D4- x2 | D2 _E2) F4 |[M:4/4] f2 f4 d2 | f2 _e2 d2 c2- | %22
w: bin, ro- bin|red- breast and|a star\-|* * ling,|a ro- bin|red- breast and a|
 c2 =B2 c4 | z2 _e4 B2 | c2 BA G4- | G4 z2 B2 | (_e2 d2) c2 f2- | f2 c2 d2 cB | A2 F2 FG A2- | %29
w: * star- ling.|These I|give both in hope,|* to|move * thee; Yet|* thou say'st that I|love not, no I love|
 AB c2 G2 c2- | c2 =B2 c2 e2 | f2 d4 c2 | c4 c4- | c4 z4 | z2 _e4 B2 | c2 BA G4- | G4 z2 B2 | %37
w: * not thee, thou say'st|* I do not,|I do not|love thee.||These I|give both in hope,|* to|
 (_e2 d2) c2 f2- | f2 c2 d2 cB | A2 F2 FG A2- | AB c2 G2 c2- | %41
w: move * thee; Yet|* thou say'st that I|love not, no I love|* not thee, thou say'st|
[Q:1/4=118] c2[Q:1/4=116] =B2[Q:1/4=114] c2[Q:1/4=112] e2 | %42
w: * I do not,|
[Q:1/4=110] f2[Q:1/4=107] d4[Q:1/4=104] c2 x4 |[M:4/4][Q:1/4=101] c4[Q:1/4=100] c8 |] %44
w: I do not|love thee.|
V:2
 F8 |[M:4/4] F4 A2 x4 | G4 F2 x4 |[M:4/4] E4 F4 | z2 A2 A2 A2 | B4 A4 | z2 F2 D2 G2- | %7
w: See,|see, mine|own sweet|jew- el,|mine own sweet|jew- el,|mine own sweet|
[M:4/4] (G2 ^F2) G4 | D4 z4 | z2 D2 F4 | C4 z2 _EF | GA B2 |[M:4/4] A2 F2 D_E z2 |[M:3/4] F4 F2 | %14
w: * * jew-|el,|What I|have, see what|I have here|for my pret- ty|fine sweet|
[M:3/4] E4 F4- | F4 z4 | z8 | f2 f4 d2 | f2 _e2 d2 c2 | x8 |[M:4/4] BABc d2 B2- | B2 c2 d2 _e2 | %22
w: dar- ling,|||A ro- bin,|ro- bin, ro- bin,||lit- tle, lit- tle young, ro\-|* bin and a|
 d4 c4- | c4 z4 | z4 z2 _e2- | e2 B2 c2 BA | GABG A2 B2- | B2 A2 B2 G2 | F2 f4 c2- | cd _e4 e2 | %30
w: star- ling.||These|* I give both in|hope, in hope at length to|* move, to move|thee; And yet|* thou say'st I|
 d4 c4 | A2 B4 A2 | G4 A2 F2- | FG _A2 G2 _E2- | ED_EF G4 | G4 z2 _e2- | e2 B2 c2 BA | %37
w: do not,|I do not|love thee, no|* I do not, no|* I do not love|thee. These|* I give both in|
 GABG A2 B2- | B2 A2 B2 G2 | F2 f4 c2- | cd _e4 e2 | d4 c4 | A2 B4 A2 x4 |[M:4/4] G4 A8 |] %44
w: hope, in hope at length to|* move, to move|thee; And yet|* thou say'st I|do not,|I do not|love thee.|
V:3
 F8 |[M:3/4] F4 F2 x4 | B4 F2 x4 |[M:4/4] c4 F4 | z2 f2 f2 f2 | B4 f4 | z2 f2 B2 _e2 | %7
w: See,|see, mine|own sweet|jew- el,|mine own sweet|jew- el,|mine own sweet|
[M:4/4][K:treble-8] d4 G4- | G4 z2 G2 | B4 F4 | z2 A2 c4 | G2 G2 |[M:3/4] A4 B2 | %13
w: jew- el,|* What|I have,|what I|have, what|I have|
[M:3/4][K:treble-8] F4 F2 |[M:4/4] c4 F4 | F4 f4- | f2 d2 f2 _e2 | d2 c2 (B4- | B2 c2) B4 | %19
w: for my|dar- ling,|A ro\-|* bin red- breast|and a star\-|* * ling,|
[M:4/4][K:treble-8] B4 B3 c | d2 c2 g4- | g4 c4- | c4 _e4- | e2 _e2 e4- | e4 _e4 | _e4 f4- | %26
w: a ro- bin|and a star\-|* ling.|* These|* I give|* both|in hope,|
 f4 B2 c2 | F4 f4 | f2 c4 c2 | G4 c4 | F2 B4 F2 | c4 F4 | f3 f _e2 c2- | cBcd _e4 | _e4 e4- | %35
w: * to move|thee; Yet|thou say'st I|do not,|I do not|love thee,|no I do not,|* I do not love|thee, These|
 e2 _e2 e4 | _e2 e2 f4- | f4 B2 c2 | F4 f4 | f2 c4 c2 | G4 c4 | F2 B4 F2 |[M:3/2] c4 F8 | x12 |] %44
w: * I give|both in hope|* to move|thee; Yet|thou say'st I|do not,|I do not|love thee.||

